; Postprocessed by [ArcWelder](https://github.com/FormerLurker/ArcWelderLib)
; Copyright(C) 2021 - Brad Hochgesang
; Version: 1.2.0, Branch: HEAD, BuildDate: 2021-11-21T20:25:43Z
; resolution=0.05mm
; path_tolerance=5.0%
; max_radius=9999.00mm
; allow_3d_arcs=True
; allow_dynamic_precision=True
; default_xyz_precision=3
; default_e_precision=5
; extrusion_rate_variance_percent=5.0%

; generated by SuperSlicer 2.5.59 on 2022-12-04 at 15:33:42 UTC







; TODO: check the size of the extruder and the y-bar clearance. Optimize & test supports.

; external perimeters extrusion width = 0.42mm
; perimeters extrusion width = 0.44mm
; infill extrusion width = 0.44mm
; solid infill extrusion width = 0.44mm
; top infill extrusion width = 0.44mm
; first layer extrusion width = 0.80mm

; object:{"name":"Speedtest","id":"Speedtest.stl id:0 copy 0","object_center":[175.000000,175.000000,0.000000],"boundingbox_center":[175.000000,175.000000,1.050000],"boundingbox_size":[120.000000,125.190254,2.100000]}
; plater:{"center":[175.000000,175.000000,0.000000],"boundingbox_center":[175.000000,175.000000,1.050000],"boundingbox_size":[120.000000,125.190254,2.100000]}

M204 P9000 T4000 ; sets acceleration (P, T), mm/sec^2
;TYPE:Custom
; custom gcode: start_gcode
; M190 S0
M109 S0 ; uncomment to remove set&wait temp gcode added automatically after this start gcode
START_PRINT EXTRUDER_TEMPERATURE=225 BED_TEMPERATURE=55 CHAMBER_TEMPERATURE=25 EXTRUDER_STANDBY_TEMPERATURE=185
 SET_PRESSURE_ADVANCE ADVANCE=0.040

; custom gcode end: start_gcode
M107 ; disable fan
G21 ; set units to millimeters
G90 ; use absolute coordinates
M83 ; use relative distances for extrusion
;_TOOLCHANGE 0
M190 S55 ; set bed temperature and wait for it to be reached
;LAYER_CHANGE
;Z:0.3
;HEIGHT:0.3
; custom gcode: before_layer_gcode
;BEFORE_LAYER_CHANGE
;0.3

; custom gcode end: before_layer_gcode

G10 ; retract
G1 Z0.3 F9000 ; move to next layer (0)
; custom gcode: layer_gcode
;AFTER_LAYER_CHANGE
;0.3
; custom gcode end: layer_gcode

G92 E0 ; reset extruder position to flush any extruder axis rounding
M204 S3600 ; adjust acceleration
G1 Z0.7 ; lift Z
G1 X109.597 Y108.04 F18000 ; move to first Skirt point
G1 Z0.3 F9000 ; restore layer Z
G11 ; unretract
;TYPE:Skirt
;WIDTH:0.4429
G1 F3618.7829
G1 X108.451 Y110.09 E0.11089 ; Skirt
G1 X108.054 Y112.405 E0.11089 ; Skirt
G1 X108.054 Y162.405 E2.36055 ; Skirt
G1 X108.16 Y163.613 E0.05728 ; Skirt
G1 X108.953 Y165.824 E0.11089 ; Skirt
G1 X141.374 Y223.156 E3.10949 ; Skirt
G1 X142.477 Y224.848 E0.09536 ; Skirt
G2 X144.354 Y226.851 I11.263 J-8.674 E0.12974; Skirt
G1 X145.881 Y228.033 E0.09118 ; Skirt
G2 X149.263 Y229.843 I10.705 J-15.938 E0.18139; Skirt
G1 X180.613 Y242.274 E1.59215 ; Skirt
G2 X193.067 Y244.538 I12.584 J-33.839 E0.60069; Skirt
G2 X203.126 Y243.037 I0.401 J-31.766 E0.48231; Skirt
G1 X206.007 Y241.306 E0.15869 ; Skirt
G1 X216.007 Y231.306 E0.66766 ; Skirt
G1 X217.658 Y228.668 E0.14692 ; Skirt
G1 X241.563 Y159.679 E3.44703 ; Skirt
G1 X241.946 Y157.405 E0.10888 ; Skirt
G1 X241.946 Y132.405 E1.18028 ; Skirt
G1 X241.827 Y129.951 E0.116 ; Skirt
G1 X241.424 Y127.16 E0.13312 ; Skirt
G1 X240.731 Y124.427 E0.13312 ; Skirt
G1 X239.46 Y121.117 E0.16739 ; Skirt
G1 X238.146 Y118.622 E0.13312 ; Skirt
G1 X236.579 Y116.278 E0.13313 ; Skirt
G1 X235.261 Y114.651 E0.09883 ; Skirt
G1 X232.754 Y112.144 E0.16739 ; Skirt
G1 X230.539 Y110.399 E0.13312 ; Skirt
G1 X228.783 Y109.259 E0.09883 ; Skirt
G1 X226.288 Y107.945 E0.13312 ; Skirt
G1 X223.67 Y106.899 E0.13313 ; Skirt
G1 X220.245 Y105.981 E0.16739 ; Skirt
G1 X218.177 Y105.654 E0.09883 ; Skirt
G1 X215.364 Y105.468 E0.13312 ; Skirt
G1 X115 Y105.459 E4.73827 ; Skirt
G1 X113.54 Y105.614 E0.0693 ; Skirt
G1 X111.361 Y106.488 E0.11089 ; Skirt
G1 X109.642 Y108 E0.10806 ; Skirt
G1 X109.967 Y108.188 F18000 ; move to first Skirt point
G1 F3618.7829
G1 X108.829 Y110.156 E0.10733 ; Skirt
G1 X108.432 Y112.405 E0.1078 ; Skirt
G1 X108.432 Y162.405 E2.36055 ; Skirt
G1 X109.283 Y165.638 E0.15782 ; Skirt
G1 X141.665 Y222.902 E3.10583 ; Skirt
G1 X142.783 Y224.625 E0.09696 ; Skirt
G2 X144.611 Y226.573 I10.894 J-8.392 E0.12625; Skirt
G1 X146.087 Y227.716 E0.08812 ; Skirt
G2 X149.403 Y229.491 I10.531 J-15.689 E0.17787; Skirt
G1 X180.752 Y241.922 E1.59215 ; Skirt
G2 X193.079 Y244.160 I12.452 J-33.520 E0.59452; Skirt
G2 X203.015 Y242.675 I0.374 J-31.479 E0.47644; Skirt
G1 X205.739 Y241.038 E0.15004 ; Skirt
G1 X215.739 Y231.038 E0.66766 ; Skirt
G1 X217.301 Y228.544 E0.13891 ; Skirt
G1 X241.206 Y159.555 E3.44703 ; Skirt
G1 X241.568 Y157.405 E0.10295 ; Skirt
G1 X241.568 Y132.405 E1.18028 ; Skirt
G1 X241.449 Y129.971 E0.11506 ; Skirt
G1 X241.05 Y127.219 E0.13126 ; Skirt
G1 X240.365 Y124.525 E0.13126 ; Skirt
G1 X239.123 Y121.288 E0.16366 ; Skirt
G1 X237.829 Y118.828 E0.13126 ; Skirt
G1 X236.284 Y116.516 E0.13126 ; Skirt
G1 X234.967 Y114.889 E0.09883 ; Skirt
G1 X232.516 Y112.438 E0.16366 ; Skirt
G1 X230.333 Y110.716 E0.13126 ; Skirt
G1 X227.982 Y109.232 E0.13126 ; Skirt
G1 X226.116 Y108.282 E0.09883 ; Skirt
G1 X223.534 Y107.252 E0.13126 ; Skirt
G1 X220.186 Y106.355 E0.16366 ; Skirt
G1 X217.434 Y105.956 E0.13126 ; Skirt
G1 X215.344 Y105.846 E0.09883 ; Skirt
G1 X115 Y105.837 E4.73733 ; Skirt
G1 X111.723 Y106.713 E0.16016 ; Skirt
G1 X110.01 Y108.147 E0.10544 ; Skirt
G1 X110.336 Y108.342 F18000 ; move to first Skirt point
G1 F3618.7829
G1 X109.208 Y110.225 E0.10361 ; Skirt
G1 X108.811 Y112.405 E0.10463 ; Skirt
G1 X108.811 Y162.405 E2.36055 ; Skirt
G1 X109.612 Y165.451 E0.14873 ; Skirt
G1 X141.994 Y222.716 E3.10583 ; Skirt
G1 X143.089 Y224.402 E0.09492 ; Skirt
G2 X144.868 Y226.295 I10.527 J-8.110 E0.12276; Skirt
G1 X146.292 Y227.398 E0.08506 ; Skirt
G2 X149.542 Y229.139 I10.236 J-15.203 E0.17434; Skirt
G1 X180.892 Y241.57 E1.59215 ; Skirt
G2 X193.091 Y243.781 I12.296 J-33.084 E0.58835; Skirt
G2 X202.904 Y242.313 I0.382 J-30.980 E0.47057; Skirt
G1 X205.471 Y240.77 E0.14139 ; Skirt
G1 X215.471 Y230.77 E0.66766 ; Skirt
G1 X216.943 Y228.42 E0.13091 ; Skirt
G1 X240.848 Y159.431 E3.44703 ; Skirt
G1 X241.189 Y157.405 E0.09701 ; Skirt
G1 X241.189 Y132.405 E1.18028 ; Skirt
G1 X241.071 Y129.99 E0.11413 ; Skirt
G1 X240.676 Y127.278 E0.12939 ; Skirt
G1 X240 Y124.623 E0.12939 ; Skirt
G1 X238.786 Y121.46 E0.15992 ; Skirt
G1 X237.511 Y119.034 E0.12939 ; Skirt
G1 X235.99 Y116.754 E0.12939 ; Skirt
G1 X234.673 Y115.127 E0.09883 ; Skirt
G1 X232.278 Y112.732 E0.15992 ; Skirt
G1 X230.127 Y111.034 E0.12939 ; Skirt
G1 X228.371 Y109.894 E0.09883 ; Skirt
G1 X225.945 Y108.619 E0.12939 ; Skirt
G1 X223.398 Y107.606 E0.12939 ; Skirt
G1 X220.126 Y106.729 E0.15992 ; Skirt
G1 X218.059 Y106.401 E0.09883 ; Skirt
G1 X215.324 Y106.224 E0.12939 ; Skirt
G1 X115 Y106.216 E4.7364 ; Skirt
G1 X112.083 Y106.946 E0.14197 ; Skirt
G1 X110.377 Y108.3 E0.10282 ; Skirt
M104 S225 ; set temperature
G10 ; retract
M204 S2016 ; adjust acceleration
G1 Z0.7 F9000 ; lift Z
; printing object Speedtest.stl id:0 copy 0
G1 X149.291 Y181.206 F18000 ; move to first External perimeter point
G1 Z0.3 F9000 ; restore layer Z
G11 ; unretract
;TYPE:External perimeter
;WIDTH:0.542684
G1 F2863.8298
G2 X148.518 Y181.316 I152.020 J1071.061 E0.04660; External perimeter
G2 X147.735 Y181.233 I-18.769 J173.330 E0.04696; External perimeter
G3 X146.347 Y180.518 I0.728 J-3.118 E0.09385; External perimeter
G2 X145.826 Y179.929 I-82.291 J72.265 E0.04688; External perimeter
G2 X145.465 Y179.231 I-154.562 J79.496 E0.04686; External perimeter
G3 X145.269 Y178.091 I3.775 J-1.236 E0.06928; External perimeter
G1 X145.319 Y177.713 E0.02276 ; External perimeter
G3 X150.013 Y175.348 I3.155 J0.422 E0.37004; External perimeter
G1 X150.68 Y175.846 E0.04963 ; External perimeter
G3 X151.196 Y176.499 I-218.884 J173.492 E0.04966; External perimeter
G2 X151.517 Y177.244 I289.228 J-124.179 E0.04840; External perimeter
G1 X151.577 Y177.633 E0.02349 ; External perimeter
G3 X151.600 Y178.414 I-1.536 J0.436 E0.04696; External perimeter
G3 X151.432 Y179.176 I-1.600 J0.047 E0.04693; External perimeter
G3 X151.082 Y179.874 I-1.564 J-0.347 E0.04690; External perimeter
G3 X150.548 Y180.485 I-1.460 J-0.737 E0.04878; External perimeter
G3 X150.213 Y180.786 I-5.321 J-5.585 E0.02690; External perimeter
G10 ; retract
G1 Z0.7 F9000 ; lift Z
G1 X115.933 Y113.337 F18000 ; move to first External perimeter point
G1 Z0.3 F9000 ; restore layer Z
G11 ; unretract
;WIDTH:0.66523
G1 F2279.7388
G1 X115.908 Y113.455 E0.009 ; External perimeter
;WIDTH:0.56781
G1 F2720.8971
G1 X115.884 Y113.573 E0.00754 ; External perimeter
G1 X115.884 Y161.237 E2.99287 ; External perimeter
G1 X115.908 Y161.355 E0.00754 ; External perimeter
;WIDTH:0.665229
G1 F2279.7424
G1 X115.933 Y161.472 E0.009 ; External perimeter
G1 X116.05 Y161.497 E0.009 ; External perimeter
;WIDTH:0.567809
G1 F2720.9027
G1 X116.168 Y161.521 E0.00754 ; External perimeter
G1 X138.879 Y161.521 E1.42604 ; External perimeter
G2 X140.635 Y161.412 I-8.496 J-151.074 E0.11047; External perimeter
G1 X141.463 Y161.259 E0.05289 ; External perimeter
G2 X143.123 Y160.846 I-0.897 J-7.149 E0.10762; External perimeter
G2 X144.721 Y160.235 I-1.797 J-7.095 E0.10762; External perimeter
G2 X146.233 Y159.434 I-2.664 J-6.857 E0.10761; External perimeter
G2 X147.008 Y158.956 I-4.474 J-8.122 E0.05718; External perimeter
G2 X148.355 Y157.881 I-11.943 J-16.346 E0.10822; External perimeter
G1 X148.912 Y157.316 E0.04981 ; External perimeter
G2 X150.039 Y156.029 I-4.937 J-5.460 E0.10761; External perimeter
G2 X151.003 Y154.615 I-5.639 J-4.880 E0.10761; External perimeter
G2 X151.787 Y153.095 I-6.150 J-4.134 E0.10761; External perimeter
G2 X152.382 Y151.491 I-6.774 J-3.425 E0.10761; External perimeter
G2 X138.695 Y133.295 I-13.473 J-4.111 E1.66426; External perimeter
G3 X138.415 Y133.163 I-0.060 J-0.235 E0.02066; External perimeter
G1 X138.281 Y133.039 E0.01148 ; External perimeter
G1 X119.417 Y114.175 E1.67507 ; External perimeter
G1 X119.328 Y114.05 E0.00966 ; External perimeter
;WIDTH:0.631185
G1 F2416.6687
G1 X119.238 Y113.924 E0.01088 ; External perimeter
;WIDTH:0.694562
G1 F2173.6275
G1 X119.149 Y113.799 E0.01209 ; External perimeter
;WIDTH:0.757939
G1 F1975.0041
G1 X119.06 Y113.674 E0.01331 ; External perimeter
;WIDTH:0.821315
G1 F1809.6411
G2 X118.809 Y113.443 I-0.428 J0.213 E0.03270; External perimeter
;WIDTH:0.66523
G1 F2279.7388
G2 X118.531 Y113.313 I-0.300 J0.279 E0.02342; External perimeter
;WIDTH:0.56781
G1 F2720.8971
G1 X118.413 Y113.289 E0.00754 ; External perimeter
G1 X116.168 Y113.289 E0.141 ; External perimeter
G1 X116.05 Y113.313 E0.00754 ; External perimeter
;WIDTH:0.66523
G1 F2279.7388
G1 X115.991 Y113.325 E0.0045 ; External perimeter
;WIPE_START
M204 S9000 ; adjust acceleration
G1 X116.109 Y113.697 F18000 ; move inwards before travel
;WIPE_END
M204 S2016 ; adjust acceleration
G1 X115.333 Y113.301 ; move to first External perimeter point
;WIDTH:0.56781
G1 F2720.8971
G1 X115.34 Y113.171 E0.00817 ; External perimeter
;WIDTH:0.66523
G1 F2279.7388
G1 X115.365 Y112.77 E0.03014 ; External perimeter
G1 X115.766 Y112.745 E0.03014 ; External perimeter
;WIDTH:0.56781
G1 F2720.8971
G1 X116.168 Y112.721 E0.02526 ; External perimeter
G1 X118.413 Y112.721 E0.141 ; External perimeter
G1 X118.583 Y112.746 E0.01076 ; External perimeter
;WIDTH:0.631186
G1 F2416.6655
G1 X118.752 Y112.772 E0.01211 ; External perimeter
;WIDTH:0.694562
G1 F2173.6258
G1 X118.922 Y112.797 E0.01347 ; External perimeter
;WIDTH:0.757939
G1 F1975.0033
G1 X119.091 Y112.822 E0.01482 ; External perimeter
;WIDTH:0.821315
G1 F1809.6411
G2 X119.412 Y112.822 I0.160 J-0.481 E0.03070; External perimeter
;WIDTH:0.757939
G1 F1975.0033
G1 X119.564 Y112.797 E0.01331 ; External perimeter
;WIDTH:0.694562
G1 F2173.6258
G1 X119.716 Y112.772 E0.01209 ; External perimeter
;WIDTH:0.631186
G1 F2416.6655
G1 X119.868 Y112.746 E0.01088 ; External perimeter
;WIDTH:0.567396
G1 F2723.1392
G1 X120.019 Y112.721 E0.00965 ; External perimeter
G1 X214.984 Y112.721 E5.95799 ; External perimeter
G3 X217.102 Y112.836 I-10.084 J205.284 E0.13303; External perimeter
G1 X218.075 Y112.99 E0.06184 ; External perimeter
G3 X219.136 Y113.163 I-1.022 J9.605 E0.06743; External perimeter
G3 X221.124 Y113.700 I-4.450 J20.421 E0.12926; External perimeter
G3 X223.046 Y114.443 I-6.238 J18.993 E0.12927; External perimeter
G3 X224.879 Y115.382 I-8.902 J19.635 E0.12925; External perimeter
G1 X225.706 Y115.919 E0.06184 ; External perimeter
G3 X227.370 Y117.129 I-5.086 J8.744 E0.12927; External perimeter
G3 X228.203 Y117.808 I-7.751 J10.359 E0.06743; External perimeter
G3 X229.656 Y119.268 I-14.720 J16.103 E0.12926; External perimeter
G3 X230.949 Y120.872 I-209.510 J170.211 E0.12927; External perimeter
G3 X233.732 Y126.365 I-16.022 J11.569 E0.38777; External perimeter
G1 X233.987 Y127.317 E0.06184 ; External perimeter
G3 X234.415 Y129.330 I-9.714 J3.117 E0.12927; External perimeter
G3 X234.630 Y131.376 I-10.140 J2.100 E0.12923; External perimeter
G3 X234.684 Y132.421 I-26.067 J1.871 E0.06564; External perimeter
;WIDTH:0.572109
G1 F2697.859
G1 X234.684 Y154.586 E1.40363 ; External perimeter
G3 X234.657 Y154.816 I-0.697 J0.035 E0.01477; External perimeter
;WIDTH:0.634411
G1 F2402.9961
G1 X234.632 Y154.948 E0.00955 ; External perimeter
;WIDTH:0.696712
G1 F2166.2369
G1 X234.607 Y155.08 E0.01059 ; External perimeter
;WIDTH:0.759013
G1 F1971.9477
G1 X234.582 Y155.212 E0.01164 ; External perimeter
;WIDTH:0.821315
G1 F1809.6411
G1 X234.557 Y155.344 E0.01268 ; External perimeter
G1 X234.557 Y156.336 E0.0936 ; External perimeter
G1 X233.856 Y155.635 E0.0936 ; External perimeter
G1 X233.731 Y155.545 E0.01453 ; External perimeter
;WIDTH:0.757939
G1 F1975.0033
G1 X233.606 Y155.456 E0.01331 ; External perimeter
;WIDTH:0.694562
G1 F2173.6258
G1 X233.48 Y155.367 E0.01209 ; External perimeter
;WIDTH:0.631186
G1 F2416.6655
G1 X233.355 Y155.277 E0.01088 ; External perimeter
;WIDTH:0.56781
G1 F2720.8971
G1 X233.23 Y155.188 E0.00966 ; External perimeter
G1 X217.491 Y139.449 E1.39761 ; External perimeter
G1 X217.419 Y139.413 E0.00502 ; External perimeter
;WIDTH:0.662874
G1 F2288.7119
G1 X217.276 Y139.342 E0.01194 ; External perimeter
;WIDTH:0.821315
G1 F1809.6411
G1 X217.133 Y139.27 E0.01511 ; External perimeter
G1 X217.108 Y139.346 E0.00755 ; External perimeter
;WIDTH:0.72625
G1 F2069.5606
G1 X217.057 Y139.498 E0.01321 ; External perimeter
;WIDTH:0.572111
G1 F2697.8482
G1 X217.006 Y139.649 E0.01013 ; External perimeter
G1 X217.006 Y158.559 E1.19751 ; External perimeter
G3 X216.981 Y159.010 I-5.015 J-0.052 E0.02860; External perimeter
;WIDTH:0.66523
G1 F2279.7388
G1 X216.958 Y159.362 E0.02644 ; External perimeter
G1 X216.556 Y159.387 E0.03014 ; External perimeter
;WIDTH:0.56781
G1 F2720.8971
G1 X216.155 Y159.411 E0.02526 ; External perimeter
G1 X197.29 Y159.411 E1.1845 ; External perimeter
G1 X197.173 Y159.435 E0.00754 ; External perimeter
;WIDTH:0.665229
G1 F2279.7424
G1 X197.055 Y159.46 E0.009 ; External perimeter
G1 X197.031 Y159.577 E0.009 ; External perimeter
;WIDTH:0.567807
G1 F2720.9132
G1 X197.006 Y159.695 E0.00754 ; External perimeter
G1 X197.006 Y169.759 E0.63194 ; External perimeter
G1 X197.031 Y169.877 E0.00754 ; External perimeter
;WIDTH:0.665229
G1 F2279.7424
G1 X197.055 Y169.995 E0.009 ; External perimeter
G1 X197.173 Y170.019 E0.009 ; External perimeter
;WIDTH:0.56781
G1 F2720.8971
G1 X197.29 Y170.043 E0.00754 ; External perimeter
G1 X206.722 Y170.043 E0.59225 ; External perimeter
G1 X216.155 Y170.043 E0.59225 ; External perimeter
G1 X216.556 Y170.068 E0.02526 ; External perimeter
;WIDTH:0.66523
G1 F2279.7388
G1 X216.958 Y170.092 E0.03014 ; External perimeter
G1 X216.982 Y170.494 E0.03014 ; External perimeter
;WIDTH:0.567807
G1 F2720.9132
G1 X217.006 Y170.895 E0.02526 ; External perimeter
G1 X217.006 Y179.706 E0.55324 ; External perimeter
G3 X216.879 Y181.239 I-20.376 J-0.916 E0.09668; External perimeter
G3 X200.147 Y186.216 I-9.562 J-1.531 E1.36592; External perimeter
G2 X198.779 Y184.874 I-14.735 J13.652 E0.12030; External perimeter
G2 X188.814 Y211.703 I-10.078 J11.522 E3.71783; External perimeter
G2 X190.554 Y211.593 I-9.930 J-170.891 E0.10950; External perimeter
