; generated by SuperSlicer 2.5.59 on 2022-12-04 at 15:33:42 UTC


;
;

;
;
; TODO: check the size of the extruder and the y-bar clearance. Optimize & test supports.

; external perimeters extrusion width = 0.42mm
; perimeters extrusion width = 0.44mm
; infill extrusion width = 0.44mm
; solid infill extrusion width = 0.44mm
; top infill extrusion width = 0.44mm
; first layer extrusion width = 0.80mm

; object:{"name":"Speedtest","id":"Speedtest.stl id:0 copy 0","object_center":[175.000000,175.000000,0.000000],"boundingbox_center":[175.000000,175.000000,1.050000],"boundingbox_size":[120.000000,125.190254,2.100000]}
; plater:{"center":[175.000000,175.000000,0.000000],"boundingbox_center":[175.000000,175.000000,1.050000],"boundingbox_size":[120.000000,125.190254,2.100000]}

M204 P9000 T4000 ; sets acceleration (P, T), mm/sec^2
;TYPE:Custom
; custom gcode: start_gcode
; M190 S0
M109 S0 ; uncomment to remove set&wait temp gcode added automatically after this start gcode
START_PRINT EXTRUDER_TEMPERATURE=225 BED_TEMPERATURE=55 CHAMBER_TEMPERATURE=25 EXTRUDER_STANDBY_TEMPERATURE=185
 SET_PRESSURE_ADVANCE ADVANCE=0.040

; custom gcode end: start_gcode
M107 ; disable fan
G21 ; set units to millimeters
G90 ; use absolute coordinates
M83 ; use relative distances for extrusion
;_TOOLCHANGE 0
M190 S55 ; set bed temperature and wait for it to be reached
;LAYER_CHANGE
;Z:0.3
;HEIGHT:0.3
; custom gcode: before_layer_gcode
;BEFORE_LAYER_CHANGE
;0.3

; custom gcode end: before_layer_gcode

G10 ; retract
G1 Z0.3 F9000 ; move to next layer (0)
; custom gcode: layer_gcode
;AFTER_LAYER_CHANGE
;0.3
; custom gcode end: layer_gcode

G92 E0 ; reset extruder position to flush any extruder axis rounding
M204 S3600 ; adjust acceleration
G1 Z0.7 ; lift Z
G1 X109.597 Y108.04 F18000 ; move to first Skirt point
G1 Z0.3 F9000 ; restore layer Z
G11 ; unretract
;TYPE:Skirt
;WIDTH:0.4429
G1 F3618.7829
G1 X108.451 Y110.09 E0.11089 ; Skirt
G1 X108.054 Y112.405 E0.11089 ; Skirt
G1 X108.054 Y162.405 E2.36055 ; Skirt
G1 X108.16 Y163.613 E0.05728 ; Skirt
G1 X108.953 Y165.824 E0.11089 ; Skirt
G1 X141.374 Y223.156 E3.10949 ; Skirt
G1 X142.477 Y224.848 E0.09536 ; Skirt
G1 X143.369 Y225.897 E0.06502 ; Skirt
G1 X144.354 Y226.851 E0.06472 ; Skirt
G1 X145.881 Y228.033 E0.09118 ; Skirt
G1 X146.984 Y228.725 E0.06146 ; Skirt
G1 X148.128 Y229.331 E0.06114 ; Skirt
G1 X149.263 Y229.843 E0.05879 ; Skirt
G1 X180.613 Y242.274 E1.59215 ; Skirt
G1 X182.888 Y243.06 E0.11365 ; Skirt
G1 X184.963 Y243.602 E0.10123 ; Skirt
G1 X187.073 Y244.015 E0.10153 ; Skirt
G1 X189.204 Y244.308 E0.10153 ; Skirt
G1 X190.957 Y244.46 E0.08309 ; Skirt
G1 X193.067 Y244.538 E0.09966 ; Skirt
G1 X195.15 Y244.496 E0.09836 ; Skirt
G1 X197.202 Y244.33 E0.0972 ; Skirt
G1 X199.219 Y244.036 E0.09623 ; Skirt
G1 X201.196 Y243.607 E0.09551 ; Skirt
G1 X203.126 Y243.037 E0.09501 ; Skirt
G1 X206.007 Y241.306 E0.15869 ; Skirt
G1 X216.007 Y231.306 E0.66766 ; Skirt
G1 X217.658 Y228.668 E0.14692 ; Skirt
G1 X241.563 Y159.679 E3.44703 ; Skirt
G1 X241.946 Y157.405 E0.10888 ; Skirt
G1 X241.946 Y132.405 E1.18028 ; Skirt
G1 X241.827 Y129.951 E0.116 ; Skirt
G1 X241.424 Y127.16 E0.13312 ; Skirt
G1 X240.731 Y124.427 E0.13312 ; Skirt
G1 X239.46 Y121.117 E0.16739 ; Skirt
G1 X238.146 Y118.622 E0.13312 ; Skirt
G1 X236.579 Y116.278 E0.13313 ; Skirt
G1 X235.261 Y114.651 E0.09883 ; Skirt
G1 X232.754 Y112.144 E0.16739 ; Skirt
G1 X230.539 Y110.399 E0.13312 ; Skirt
G1 X228.783 Y109.259 E0.09883 ; Skirt
G1 X226.288 Y107.945 E0.13312 ; Skirt
G1 X223.67 Y106.899 E0.13313 ; Skirt
G1 X220.245 Y105.981 E0.16739 ; Skirt
G1 X218.177 Y105.654 E0.09883 ; Skirt
G1 X215.364 Y105.468 E0.13312 ; Skirt
G1 X115 Y105.459 E4.73827 ; Skirt
G1 X113.54 Y105.614 E0.0693 ; Skirt
G1 X111.361 Y106.488 E0.11089 ; Skirt
G1 X109.642 Y108 E0.10806 ; Skirt
G1 X109.967 Y108.188 F18000 ; move to first Skirt point
G1 F3618.7829
G1 X108.829 Y110.156 E0.10733 ; Skirt
G1 X108.432 Y112.405 E0.1078 ; Skirt
G1 X108.432 Y162.405 E2.36055 ; Skirt
G1 X109.283 Y165.638 E0.15782 ; Skirt
G1 X141.665 Y222.902 E3.10583 ; Skirt
G1 X142.783 Y224.625 E0.09696 ; Skirt
G1 X143.651 Y225.645 E0.06323 ; Skirt
G1 X144.611 Y226.573 E0.06302 ; Skirt
G1 X146.087 Y227.716 E0.08812 ; Skirt
G1 X147.165 Y228.392 E0.06012 ; Skirt
G1 X148.287 Y228.987 E0.05993 ; Skirt
G1 X149.403 Y229.491 E0.05782 ; Skirt
G1 X180.752 Y241.922 E1.59215 ; Skirt
G1 X182.986 Y242.695 E0.11159 ; Skirt
G1 X185.037 Y243.231 E0.1001 ; Skirt
G1 X187.127 Y243.64 E0.10051 ; Skirt
G1 X189.237 Y243.931 E0.10055 ; Skirt
G1 X190.99 Y244.083 E0.08309 ; Skirt
G1 X193.079 Y244.16 E0.09868 ; Skirt
G1 X195.14 Y244.117 E0.09734 ; Skirt
G1 X197.169 Y243.953 E0.09611 ; Skirt
G1 X199.161 Y243.662 E0.09506 ; Skirt
G1 X201.112 Y243.237 E0.09425 ; Skirt
G1 X203.015 Y242.675 E0.09368 ; Skirt
G1 X205.739 Y241.038 E0.15004 ; Skirt
G1 X215.739 Y231.038 E0.66766 ; Skirt
G1 X217.301 Y228.544 E0.13891 ; Skirt
G1 X241.206 Y159.555 E3.44703 ; Skirt
G1 X241.568 Y157.405 E0.10295 ; Skirt
G1 X241.568 Y132.405 E1.18028 ; Skirt
G1 X241.449 Y129.971 E0.11506 ; Skirt
G1 X241.05 Y127.219 E0.13126 ; Skirt
G1 X240.365 Y124.525 E0.13126 ; Skirt
G1 X239.123 Y121.288 E0.16366 ; Skirt
G1 X237.829 Y118.828 E0.13126 ; Skirt
G1 X236.284 Y116.516 E0.13126 ; Skirt
G1 X234.967 Y114.889 E0.09883 ; Skirt
G1 X232.516 Y112.438 E0.16366 ; Skirt
G1 X230.333 Y110.716 E0.13126 ; Skirt
G1 X227.982 Y109.232 E0.13126 ; Skirt
G1 X226.116 Y108.282 E0.09883 ; Skirt
G1 X223.534 Y107.252 E0.13126 ; Skirt
G1 X220.186 Y106.355 E0.16366 ; Skirt
G1 X217.434 Y105.956 E0.13126 ; Skirt
G1 X215.344 Y105.846 E0.09883 ; Skirt
G1 X115 Y105.837 E4.73733 ; Skirt
G1 X111.723 Y106.713 E0.16016 ; Skirt
G1 X110.01 Y108.147 E0.10544 ; Skirt
G1 X110.336 Y108.342 F18000 ; move to first Skirt point
G1 F3618.7829
G1 X109.208 Y110.225 E0.10361 ; Skirt
G1 X108.811 Y112.405 E0.10463 ; Skirt
G1 X108.811 Y162.405 E2.36055 ; Skirt
G1 X109.612 Y165.451 E0.14873 ; Skirt
G1 X141.994 Y222.716 E3.10583 ; Skirt
G1 X143.089 Y224.402 E0.09492 ; Skirt
G1 X143.933 Y225.393 E0.06144 ; Skirt
G1 X144.868 Y226.295 E0.06132 ; Skirt
G1 X146.292 Y227.398 E0.08506 ; Skirt
G1 X147.347 Y228.06 E0.05878 ; Skirt
G1 X148.445 Y228.644 E0.05871 ; Skirt
G1 X149.542 Y229.139 E0.05685 ; Skirt
G1 X180.892 Y241.57 E1.59215 ; Skirt
G1 X183.084 Y242.329 E0.10953 ; Skirt
G1 X185.112 Y242.86 E0.09896 ; Skirt
G1 X187.18 Y243.266 E0.09949 ; Skirt
G1 X189.269 Y243.554 E0.09958 ; Skirt
G1 X191.023 Y243.706 E0.08309 ; Skirt
G1 X193.091 Y243.781 E0.0977 ; Skirt
G1 X195.13 Y243.739 E0.09631 ; Skirt
G1 X197.136 Y243.576 E0.09502 ; Skirt
G1 X199.104 Y243.288 E0.09389 ; Skirt
G1 X201.029 Y242.868 E0.093 ; Skirt
G1 X202.904 Y242.313 E0.09235 ; Skirt
G1 X205.471 Y240.77 E0.14139 ; Skirt
G1 X215.471 Y230.77 E0.66766 ; Skirt
G1 X216.943 Y228.42 E0.13091 ; Skirt
G1 X240.848 Y159.431 E3.44703 ; Skirt
G1 X241.189 Y157.405 E0.09701 ; Skirt
G1 X241.189 Y132.405 E1.18028 ; Skirt
G1 X241.071 Y129.99 E0.11413 ; Skirt
G1 X240.676 Y127.278 E0.12939 ; Skirt
G1 X240 Y124.623 E0.12939 ; Skirt
G1 X238.786 Y121.46 E0.15992 ; Skirt
G1 X237.511 Y119.034 E0.12939 ; Skirt
G1 X235.99 Y116.754 E0.12939 ; Skirt
G1 X234.673 Y115.127 E0.09883 ; Skirt
G1 X232.278 Y112.732 E0.15992 ; Skirt
G1 X230.127 Y111.034 E0.12939 ; Skirt
G1 X228.371 Y109.894 E0.09883 ; Skirt
G1 X225.945 Y108.619 E0.12939 ; Skirt
G1 X223.398 Y107.606 E0.12939 ; Skirt
G1 X220.126 Y106.729 E0.15992 ; Skirt
G1 X218.059 Y106.401 E0.09883 ; Skirt
G1 X215.324 Y106.224 E0.12939 ; Skirt
G1 X115 Y106.216 E4.7364 ; Skirt
G1 X112.083 Y106.946 E0.14197 ; Skirt
G1 X110.377 Y108.3 E0.10282 ; Skirt
M104 S225 ; set temperature
G10 ; retract
M204 S2016 ; adjust acceleration
G1 Z0.7 F9000 ; lift Z
; printing object Speedtest.stl id:0 copy 0
G1 X149.291 Y181.206 F18000 ; move to first External perimeter point
G1 Z0.3 F9000 ; restore layer Z
G11 ; unretract
;TYPE:External perimeter
;WIDTH:0.542684
G1 F2863.8298
G1 X148.904 Y181.261 E0.0233 ; External perimeter
G1 X148.518 Y181.316 E0.0233 ; External perimeter
G1 X148.126 Y181.274 E0.02348 ; External perimeter
G1 X147.735 Y181.233 E0.02348 ; External perimeter
G1 X147.366 Y181.097 E0.02347 ; External perimeter
G1 X146.996 Y180.961 E0.02347 ; External perimeter
G1 X146.347 Y180.518 E0.04691 ; External perimeter
G1 X146.087 Y180.223 E0.02344 ; External perimeter
G1 X145.826 Y179.929 E0.02344 ; External perimeter
G1 X145.646 Y179.58 E0.02343 ; External perimeter
G1 X145.465 Y179.231 E0.02343 ; External perimeter
G1 X145.376 Y178.849 E0.02343 ; External perimeter
G1 X145.286 Y178.467 E0.02343 ; External perimeter
G1 X145.278 Y178.279 E0.01121 ; External perimeter
G1 X145.269 Y178.091 E0.01121 ; External perimeter
G1 X145.319 Y177.713 E0.02276 ; External perimeter
G1 X145.369 Y177.335 E0.02276 ; External perimeter
G1 X145.436 Y177.129 E0.01292 ; External perimeter
G1 X145.504 Y176.923 E0.01292 ; External perimeter
G1 X145.608 Y176.714 E0.01393 ; External perimeter
G1 X145.712 Y176.505 E0.01393 ; External perimeter
G1 X145.944 Y176.203 E0.02276 ; External perimeter
G1 X146.176 Y175.9 E0.02276 ; External perimeter
G1 X146.302 Y175.784 E0.0102 ; External perimeter
G1 X146.428 Y175.668 E0.0102 ; External perimeter
G1 X146.849 Y175.374 E0.03064 ; External perimeter
G1 X147.221 Y175.217 E0.02409 ; External perimeter
G1 X147.593 Y175.06 E0.02409 ; External perimeter
G1 X147.715 Y175.03 E0.00749 ; External perimeter
G1 X147.837 Y175 E0.00749 ; External perimeter
G1 X148.126 Y174.971 E0.01734 ; External perimeter
G1 X148.415 Y174.942 E0.01734 ; External perimeter
G1 X149.24 Y175.04 E0.04958 ; External perimeter
G1 X150.013 Y175.348 E0.0496 ; External perimeter
G1 X150.68 Y175.846 E0.04963 ; External perimeter
G1 X150.938 Y176.172 E0.02483 ; External perimeter
G1 X151.196 Y176.499 E0.02483 ; External perimeter
G1 X151.356 Y176.871 E0.0242 ; External perimeter
G1 X151.517 Y177.244 E0.0242 ; External perimeter
G1 X151.577 Y177.633 E0.02349 ; External perimeter
G1 X151.637 Y178.022 E0.02349 ; External perimeter
G1 X151.6 Y178.414 E0.02347 ; External perimeter
G1 X151.563 Y178.806 E0.02347 ; External perimeter
G1 X151.432 Y179.176 E0.02346 ; External perimeter
G1 X151.3 Y179.547 E0.02346 ; External perimeter
G1 X151.082 Y179.874 E0.02344 ; External perimeter
G1 X150.864 Y180.201 E0.02344 ; External perimeter
G1 X150.548 Y180.485 E0.02534 ; External perimeter
G1 X150.233 Y180.769 E0.02534 ; External perimeter
G1 X150.213 Y180.786 E0.00156 ; External perimeter
G10 ; retract
G1 Z0.7 F9000 ; lift Z
G1 X115.933 Y113.337 F18000 ; move to first External perimeter point
G1 Z0.3 F9000 ; restore layer Z
G11 ; unretract
;WIDTH:0.66523
G1 F2279.7388
G1 X115.908 Y113.455 E0.009 ; External perimeter
;WIDTH:0.56781
G1 F2720.8971
G1 X115.884 Y113.573 E0.00754 ; External perimeter
G1 X115.884 Y161.237 E2.99287 ; External perimeter
G1 X115.908 Y161.355 E0.00754 ; External perimeter
;WIDTH:0.665229
G1 F2279.7424
G1 X115.933 Y161.472 E0.009 ; External perimeter
G1 X116.05 Y161.497 E0.009 ; External perimeter
;WIDTH:0.567809
G1 F2720.9027
G1 X116.168 Y161.521 E0.00754 ; External perimeter
G1 X138.879 Y161.521 E1.42604 ; External perimeter
G1 X138.915 Y161.52 E0.00228 ; External perimeter
G1 X139.758 Y161.469 E0.05301 ; External perimeter
G1 X140.6 Y161.417 E0.05301 ; External perimeter
G1 X140.635 Y161.412 E0.00217 ; External perimeter
G1 X141.463 Y161.259 E0.05289 ; External perimeter
G1 X142.291 Y161.106 E0.05289 ; External perimeter
G1 X142.329 Y161.096 E0.00246 ; External perimeter
G1 X143.123 Y160.846 E0.05227 ; External perimeter
G1 X143.917 Y160.596 E0.05227 ; External perimeter
G1 X143.972 Y160.575 E0.00369 ; External perimeter
G1 X144.721 Y160.235 E0.05166 ; External perimeter
G1 X145.47 Y159.895 E0.05166 ; External perimeter
G1 X145.539 Y159.858 E0.00491 ; External perimeter
G1 X146.233 Y159.434 E0.05104 ; External perimeter
G1 X146.927 Y159.011 E0.05104 ; External perimeter
G1 X147.008 Y158.956 E0.00614 ; External perimeter
G1 X148.266 Y157.958 E0.10085 ; External perimeter
G1 X148.355 Y157.881 E0.00737 ; External perimeter
G1 X148.912 Y157.316 E0.04981 ; External perimeter
G1 X149.469 Y156.751 E0.04981 ; External perimeter
G1 X149.561 Y156.65 E0.0086 ; External perimeter
G1 X150.039 Y156.029 E0.0492 ; External perimeter
G1 X150.518 Y155.409 E0.0492 ; External perimeter
G1 X150.608 Y155.281 E0.00983 ; External perimeter
G1 X151.003 Y154.615 E0.04858 ; External perimeter
G1 X151.397 Y153.95 E0.04858 ; External perimeter
G1 X151.481 Y153.795 E0.01106 ; External perimeter
G1 X151.787 Y153.095 E0.04797 ; External perimeter
G1 X152.094 Y152.395 E0.04797 ; External perimeter
G1 X152.165 Y152.213 E0.01229 ; External perimeter
G1 X152.382 Y151.491 E0.04735 ; External perimeter
G1 X152.599 Y150.768 E0.04735 ; External perimeter
G1 X152.625 Y150.664 E0.00676 ; External perimeter
G1 X152.652 Y150.56 E0.00676 ; External perimeter
G1 X152.778 Y149.826 E0.04673 ; External perimeter
G1 X152.903 Y149.093 E0.04673 ; External perimeter
G1 X152.919 Y148.976 E0.00737 ; External perimeter
G1 X152.934 Y148.86 E0.00737 ; External perimeter
G1 X152.969 Y148.126 E0.04612 ; External perimeter
G1 X153.004 Y147.392 E0.04612 ; External perimeter
G1 X153.005 Y147.265 E0.00799 ; External perimeter
G1 X153.006 Y147.138 E0.00799 ; External perimeter
G1 X152.953 Y146.415 E0.0455 ; External perimeter
G1 X152.899 Y145.693 E0.0455 ; External perimeter
G1 X152.884 Y145.556 E0.0086 ; External perimeter
G1 X152.869 Y145.42 E0.0086 ; External perimeter
G1 X152.729 Y144.719 E0.04489 ; External perimeter
G1 X152.59 Y144.018 E0.04489 ; External perimeter
G1 X152.522 Y143.732 E0.01844 ; External perimeter
G1 X152.302 Y143.062 E0.04427 ; External perimeter
G1 X152.082 Y142.393 E0.04427 ; External perimeter
G1 X152.027 Y142.246 E0.00983 ; External perimeter
G1 X151.973 Y142.099 E0.00983 ; External perimeter
G1 X151.677 Y141.47 E0.04366 ; External perimeter
G1 X151.381 Y140.841 E0.04366 ; External perimeter
G1 X151.229 Y140.545 E0.02089 ; External perimeter
G1 X150.863 Y139.965 E0.04304 ; External perimeter
G1 X150.498 Y139.384 E0.04304 ; External perimeter
G1 X150.399 Y139.239 E0.01106 ; External perimeter
G1 X150.3 Y139.093 E0.01106 ; External perimeter
G1 X149.874 Y138.569 E0.04243 ; External perimeter
G1 X149.447 Y138.045 E0.04243 ; External perimeter
G1 X149.202 Y137.765 E0.02335 ; External perimeter
G1 X148.722 Y137.304 E0.04181 ; External perimeter
G1 X148.242 Y136.842 E0.04181 ; External perimeter
G1 X148.096 Y136.712 E0.01229 ; External perimeter
G1 X147.95 Y136.581 E0.01229 ; External perimeter
G1 X147.425 Y136.187 E0.0412 ; External perimeter
G1 X146.9 Y135.794 E0.0412 ; External perimeter
G1 X146.563 Y135.558 E0.02581 ; External perimeter
G1 X146.003 Y135.236 E0.04058 ; External perimeter
G1 X145.443 Y134.914 E0.04058 ; External perimeter
G1 X145.252 Y134.813 E0.01352 ; External perimeter
G1 X145.062 Y134.712 E0.01352 ; External perimeter
G1 X144.476 Y134.465 E0.03997 ; External perimeter
G1 X143.889 Y134.217 E0.03997 ; External perimeter
G1 X143.679 Y134.136 E0.01413 ; External perimeter
G1 X143.469 Y134.056 E0.01413 ; External perimeter
G1 X142.866 Y133.884 E0.03935 ; External perimeter
G1 X142.264 Y133.712 E0.03935 ; External perimeter
G1 X142.036 Y133.655 E0.01475 ; External perimeter
G1 X141.808 Y133.598 E0.01475 ; External perimeter
G1 X140.589 Y133.406 E0.07748 ; External perimeter
G1 X140.346 Y133.376 E0.01536 ; External perimeter
G1 X140.103 Y133.346 E0.01536 ; External perimeter
G1 X139.472 Y133.325 E0.03967 ; External perimeter
G1 X138.841 Y133.303 E0.03967 ; External perimeter
G1 X138.695 Y133.295 E0.00918 ; External perimeter
G1 X138.549 Y133.287 E0.00918 ; External perimeter
G1 X138.415 Y133.163 E0.01148 ; External perimeter
G1 X138.281 Y133.039 E0.01148 ; External perimeter
G1 X119.417 Y114.175 E1.67507 ; External perimeter
G1 X119.328 Y114.05 E0.00966 ; External perimeter
;WIDTH:0.631185
G1 F2416.6687
G1 X119.238 Y113.924 E0.01088 ; External perimeter
;WIDTH:0.694562
G1 F2173.6275
G1 X119.149 Y113.799 E0.01209 ; External perimeter
;WIDTH:0.757939
G1 F1975.0041
G1 X119.06 Y113.674 E0.01331 ; External perimeter
